;FLAVOR:Marlin
;TIME:21146
;Filament used: 19.9296m
;Layer height: 0.2
;MINX:36.011
;MINY:64.526
;MINZ:0.32
;MAXX:198.99
;MAXY:170.473
;MAXZ:28.08
;Generated with Cura_SteamEngine 4.13.1
M140 S75
M105
M190 S75
M104 S215
M105
M109 S215
M82 ;absolute extrusion mode
; Ender 3 Custom Start G-code
G92 E0 ; Reset Extruder
G28 ; Home all axes
G1 Z2.0 F3000 ; Move Z Axis up little to prevent scratching of Heat Bed
G1 X0.1 Y20 Z0.3 F5000.0 ; Move to start position
G1 X0.1 Y200.0 Z0.3 F1500.0 E15 ; Draw the first line
G1 X0.4 Y200.0 Z0.3 F5000.0 ; Move to side a little
G1 X0.4 Y20 Z0.3 F1500.0 E30 ; Draw the second line
G92 E0 ; Reset Extruder
G1 Z2.0 F3000 ; Move Z Axis up little to prevent scratching of Heat Bed
G1 X5 Y20 Z0.3 F5000.0 ; Move over to prevent blob squish
G92 E0
G92 E0
G1 F2700 E-6.5
;LAYER_COUNT:127
;LAYER:0
M107
M204 S500
M205 X8 Y8
G1 F300 Z0.52
G0 F6000 X46.932 Y67.849 Z0.52
;TYPE:SKIRT
G1 F300 Z0.32
G1 F2700 E0
G1 F1200 X47.388 Y67.536 E0.02856
G1 X47.858 Y67.244 E0.05712
G1 X48.443 Y66.9 E0.09216
G1 X49.373 Y66.411 E0.14641
G1 X50.032 Y66.104 E0.18395
G1 X50.966 Y65.72 E0.23609
G1 X51.527 Y65.519 E0.26685
G1 X51.969 Y65.371 E0.29092
G1 X52.059 Y65.343 E0.29579
G1 X52.576 Y65.196 E0.32354
G1 X53.211 Y65.032 E0.3574
G1 X54.234 Y64.819 E0.41135
G1 X54.97 Y64.702 E0.44983
G1 X55.984 Y64.589 E0.5025
G1 X56.632 Y64.547 E0.53603
G1 X57.137 Y64.526 E0.56213
G1 X57.707 Y64.528 E0.59156
G1 X58.325 Y64.546 E0.62348
G1 X58.802 Y64.57 E0.64814
G1 X59.413 Y64.627 E0.67982
G1 X60.052 Y64.705 E0.71306
G1 X60.545 Y64.777 E0.73878
G1 X60.64 Y64.793 E0.74375
G1 X61.153 Y64.892 E0.77073
G1 X61.695 Y65.01 E0.79937
G1 X62.103 Y65.107 E0.82102
G1 X62.196 Y65.131 E0.82598
G1 X62.791 Y65.302 E0.85794
G1 X63.449 Y65.512 E0.8936
G1 X63.819 Y65.638 E0.91378
G1 X64.221 Y65.786 E0.9359
G1 X64.509 Y65.898 E0.95186
G1 X66.972 Y66.819 E1.08762
G1 X69.383 Y67.641 E1.21914
G1 X71.763 Y68.379 E1.34779
G1 X74.197 Y69.059 E1.47827
G1 X76.634 Y69.666 E1.60794
G1 X79.107 Y70.21 E1.73867
G1 X81.543 Y70.67 E1.86667
G1 X84.061 Y71.075 E1.99834
G1 X86.549 Y71.402 E2.1279
G1 X89.033 Y71.658 E2.25683
G1 X91.58 Y71.848 E2.3887
G1 X94.045 Y71.962 E2.51611
G1 X97.037 Y72.01 E2.6706
G1 X140.988 Y72.009 E4.93981
G1 X143.596 Y71.972 E5.07448
G1 X146.118 Y71.865 E5.20481
G1 X148.6 Y71.689 E5.33327
G1 X151.12 Y71.438 E5.46403
G1 X153.634 Y71.117 E5.59488
G1 X156.081 Y70.733 E5.72276
G1 X158.592 Y70.266 E5.85463
G1 X161.048 Y69.737 E5.98434
G1 X163.462 Y69.146 E6.11266
G1 X165.891 Y68.477 E6.24274
G1 X168.314 Y67.736 E6.37356
G1 X170.735 Y66.919 E6.50548
G1 X173.077 Y66.055 E6.63437
G1 X173.392 Y65.934 E6.65179
G1 X174.41 Y65.56 E6.70778
G1 X174.884 Y65.398 E6.73365
G1 X175.468 Y65.226 E6.76508
G1 X176.086 Y65.063 E6.79808
G1 X176.427 Y64.979 E6.81621
G1 X177.172 Y64.829 E6.85545
G1 X177.744 Y64.734 E6.88538
G1 X178.112 Y64.678 E6.9046
G1 X178.835 Y64.602 E6.94214
G1 X179.441 Y64.558 E6.97351
G1 X179.795 Y64.537 E6.99182
G1 X180.571 Y64.526 E7.03189
G1 X181.184 Y64.539 E7.06354
G1 X181.651 Y64.559 E7.08768
G1 X182.28 Y64.612 E7.12027
G1 X182.853 Y64.677 E7.15004
G1 X183.252 Y64.729 E7.17081
G1 X183.961 Y64.853 E7.20798
G1 X184.564 Y64.979 E7.23978
G1 X185.009 Y65.082 E7.26336
G1 X185.1 Y65.105 E7.26821
G1 X185.639 Y65.256 E7.29711
G1 X186.211 Y65.432 E7.32801
G1 X186.612 Y65.564 E7.34981
G1 X187.251 Y65.804 E7.38505
G1 X187.799 Y66.03 E7.41565
G1 X188.265 Y66.235 E7.44194
G1 X188.808 Y66.501 E7.47316
G1 X189.353 Y66.787 E7.50493
G1 X189.807 Y67.039 E7.53174
G1 X189.882 Y67.083 E7.53623
G1 X190.299 Y67.34 E7.56152
G1 X190.788 Y67.657 E7.59161
G1 X191.148 Y67.901 E7.61407
G1 X191.233 Y67.961 E7.61944
G1 X191.712 Y68.319 E7.65031
G1 X192.195 Y68.701 E7.68211
G1 X192.565 Y69.006 E7.70686
G1 X193.051 Y69.444 E7.74064
G1 X193.473 Y69.848 E7.77081
G1 X193.769 Y70.142 E7.79235
G1 X194.238 Y70.649 E7.828
G1 X194.622 Y71.091 E7.85823
G1 X194.895 Y71.417 E7.88019
G1 X195.33 Y71.984 E7.91709
G1 X195.688 Y72.484 E7.94884
G1 X195.948 Y72.864 E7.97261
G1 X196.292 Y73.413 E8.00606
G1 X196.589 Y73.921 E8.03644
G1 X196.785 Y74.271 E8.05715
G1 X197.101 Y74.896 E8.09331
G1 X197.366 Y75.464 E8.12567
G1 X197.544 Y75.866 E8.14837
G1 X197.795 Y76.506 E8.18386
G1 X197.986 Y77.042 E8.21324
G1 X198.133 Y77.482 E8.23719
G1 X198.312 Y78.102 E8.27051
G1 X198.471 Y78.723 E8.30361
G1 X198.575 Y79.169 E8.32725
G1 X198.694 Y79.797 E8.36025
G1 X198.787 Y80.382 E8.39084
G1 X198.849 Y80.83 E8.41419
G1 X198.908 Y81.463 E8.44701
G1 X198.952 Y82.144 E8.48225
G1 X198.969 Y82.5 E8.50065
G1 X198.982 Y82.904 E8.52152
G1 X198.989 Y83.359 E8.54501
G1 X198.99 Y151.272 E12.05138
G1 X198.976 Y152.363 E12.10772
G1 X198.958 Y152.853 E12.13303
G1 X198.937 Y153.212 E12.1516
G1 X198.874 Y153.906 E12.18758
G1 X198.794 Y154.559 E12.22155
G1 X198.746 Y154.912 E12.23994
G1 X198.615 Y155.624 E12.27732
G1 X198.492 Y156.19 E12.30722
G1 X198.37 Y156.697 E12.33415
G1 X198.213 Y157.242 E12.36343
G1 X198.011 Y157.881 E12.39803
G1 X197.904 Y158.201 E12.41545
G1 X197.624 Y158.933 E12.45591
G1 X197.404 Y159.452 E12.48502
G1 X197.239 Y159.824 E12.50603
G1 X197.202 Y159.903 E12.51053
G1 X196.937 Y160.431 E12.54104
G1 X196.636 Y160.993 E12.57395
G1 X196.391 Y161.426 E12.59964
G1 X196.064 Y161.951 E12.63157
G1 X195.738 Y162.443 E12.66204
G1 X195.453 Y162.854 E12.68787
G1 X195.407 Y162.917 E12.69189
G1 X195.101 Y163.316 E12.71786
G1 X194.706 Y163.808 E12.75043
G1 X194.43 Y164.139 E12.77268
G1 X193.936 Y164.679 E12.81047
G1 X193.459 Y165.167 E12.8457
G1 X192.721 Y165.855 E12.8978
G1 X192.272 Y166.237 E12.92823
G1 X191.973 Y166.484 E12.94826
G1 X191.901 Y166.541 E12.953
G1 X191.411 Y166.907 E12.98457
G1 X190.896 Y167.27 E13.01711
G1 X190.591 Y167.477 E13.03614
G1 X189.958 Y167.869 E13.07458
G1 X189.443 Y168.164 E13.10522
G1 X189.155 Y168.324 E13.12223
G1 X188.427 Y168.687 E13.16423
G1 X187.884 Y168.933 E13.19501
G1 X187.521 Y169.09 E13.21543
G1 X186.877 Y169.337 E13.25104
G1 X186.303 Y169.537 E13.28242
G1 X185.927 Y169.661 E13.30287
G1 X185.833 Y169.69 E13.30794
G1 X185.236 Y169.855 E13.33992
G1 X184.671 Y169.995 E13.36998
G1 X184.256 Y170.09 E13.39196
G1 X183.572 Y170.216 E13.42787
G1 X182.943 Y170.311 E13.46071
G1 X182.433 Y170.376 E13.48726
G1 X181.86 Y170.423 E13.51694
G1 X181.26 Y170.457 E13.54797
G1 X180.842 Y170.473 E13.56956
G1 X180.145 Y170.469 E13.60555
G1 X179.457 Y170.443 E13.6411
G1 X178.418 Y170.354 E13.69494
G1 X177.684 Y170.256 E13.73317
G1 X176.702 Y170.08 E13.78468
G1 X176.161 Y169.957 E13.81333
G1 X175.758 Y169.857 E13.83476
G1 X175.1 Y169.665 E13.87015
G1 X174.48 Y169.463 E13.90382
G1 X174.148 Y169.35 E13.92193
G1 X173.742 Y169.201 E13.94426
G1 X171.438 Y168.328 E14.07147
G1 X169.048 Y167.5 E14.20206
G1 X166.632 Y166.738 E14.33285
G1 X164.23 Y166.054 E14.4618
G1 X161.776 Y165.43 E14.59253
G1 X159.333 Y164.881 E14.72181
G1 X156.858 Y164.402 E14.85197
G1 X154.368 Y163.99 E14.98228
G1 X151.853 Y163.646 E15.11333
G1 X149.396 Y163.38 E15.24093
G1 X146.866 Y163.18 E15.37196
G1 X144.363 Y163.053 E15.50136
G1 X140.983 Y162.99 E15.6759
G1 X97.007 Y162.99 E17.9464
G1 X94.399 Y163.027 E18.08107
G1 X91.877 Y163.134 E18.21139
G1 X89.383 Y163.311 E18.34048
G1 X86.883 Y163.559 E18.47019
G1 X84.39 Y163.878 E18.59996
G1 X81.89 Y164.27 E18.73061
G1 X79.406 Y164.732 E18.86106
G1 X76.942 Y165.262 E18.99119
G1 X74.54 Y165.851 E19.11888
G1 X72.074 Y166.529 E19.25092
G1 X69.705 Y167.255 E19.37885
G1 X67.29 Y168.069 E19.51043
G1 X65.155 Y168.872 E19.6282
G1 X63.459 Y169.485 E19.72131
G1 X62.469 Y169.79 E19.77479
G1 X61.721 Y169.983 E19.81468
G1 X60.691 Y170.197 E19.86899
G1 X60.166 Y170.28 E19.89643
G1 X59.782 Y170.334 E19.91646
G1 X59.102 Y170.402 E19.95174
G1 X58.416 Y170.449 E19.98724
G1 X57.892 Y170.473 E20.01432
G1 X57.339 Y170.472 E20.04288
G1 X56.723 Y170.456 E20.07469
G1 X56.29 Y170.437 E20.09707
G1 X55.59 Y170.374 E20.13335
G1 X54.926 Y170.293 E20.16789
G1 X53.937 Y170.126 E20.21968
G1 X53.261 Y169.98 E20.25538
G1 X52.284 Y169.722 E20.30756
G1 X51.648 Y169.522 E20.34198
G1 X51.355 Y169.425 E20.35791
G1 X50.616 Y169.143 E20.39875
G1 X50.009 Y168.886 E20.43278
G1 X49.576 Y168.692 E20.45728
G1 X49.023 Y168.414 E20.48924
G1 X48.514 Y168.14 E20.51908
G1 X48.108 Y167.91 E20.54318
G1 X48.002 Y167.847 E20.54954
G1 X47.533 Y167.553 E20.57812
G1 X47.029 Y167.218 E20.60937
G1 X46.608 Y166.924 E20.63588
G1 X46.157 Y166.578 E20.66523
G1 X45.627 Y166.15 E20.7004
G1 X45.337 Y165.908 E20.7199
G1 X44.769 Y165.387 E20.7597
G1 X44.336 Y164.961 E20.79106
G1 X43.666 Y164.24 E20.84187
G1 X43.171 Y163.657 E20.88136
G1 X42.524 Y162.815 E20.93619
G1 X42.137 Y162.258 E20.9712
G1 X41.598 Y161.4 E21.02352
G1 X41.269 Y160.819 E21.05799
G1 X39.985 Y158.633 E21.18888
G1 X39.24 Y157.452 E21.26098
G1 X38.188 Y155.75 E21.36428
G1 X37.985 Y155.409 E21.38477
G1 X37.543 Y154.56 E21.43419
G1 X37.323 Y154.088 E21.46108
G1 X36.83 Y152.836 E21.53055
G1 X36.697 Y152.426 E21.55281
G1 X36.52 Y151.822 E21.5853
G1 X36.353 Y151.099 E21.62361
G1 X36.256 Y150.603 E21.64971
G1 X36.084 Y149.33 E21.71603
G1 X36.058 Y148.989 E21.73369
G1 X36.027 Y148.329 E21.7678
G1 X36.011 Y147.329 E21.81944
G1 X36.011 Y87.69 E24.89862
G1 X36.021 Y86.913 E24.93874
G1 X36.03 Y86.595 E24.95517
G1 X36.048 Y86.182 E24.97651
G1 X36.072 Y85.794 E24.99658
G1 X36.189 Y84.799 E25.04831
G1 X36.26 Y84.366 E25.07096
G1 X36.55 Y83.081 E25.13898
G1 X36.698 Y82.571 E25.16639
G1 X37.157 Y81.293 E25.2365
G1 X37.335 Y80.879 E25.25977
G1 X37.909 Y79.733 E25.32595
G1 X38.132 Y79.346 E25.34901
G1 X38.302 Y79.06 E25.36618
G1 X38.805 Y78.248 E25.4155
G1 X39.472 Y77.204 E25.47946
G1 X40.79 Y75.005 E25.61183
G1 X41.491 Y73.775 E25.68493
G1 X41.804 Y73.26 E25.71604
G1 X42.144 Y72.733 E25.74842
G1 X42.322 Y72.465 E25.76503
G1 X42.776 Y71.843 E25.80479
G1 X43.152 Y71.364 E25.83623
G1 X43.389 Y71.072 E25.85565
G1 X43.868 Y70.535 E25.8928
G1 X44.332 Y70.047 E25.92757
G1 X44.588 Y69.786 E25.94644
G1 X45.136 Y69.274 E25.98516
G1 X45.542 Y68.92 E26.01298
G1 X45.841 Y68.668 E26.03316
G1 X46.419 Y68.22 E26.07092
G1 X46.523 Y68.144 E26.07757
G0 F1080 X46.932 Y67.849
G0 F6000 X47.164 Y68.17
G1 F1200 X47.604 Y67.868 E26.10513
G1 X48.059 Y67.585 E26.13279
G1 X48.644 Y67.241 E26.16783
G1 X49.54 Y66.77 E26.22009
G1 X50.199 Y66.463 E26.25763
G1 X51.1 Y66.093 E26.30792
G1 X51.661 Y65.892 E26.33868
G1 X52.087 Y65.749 E26.36188
G1 X52.177 Y65.721 E26.36675
G1 X52.675 Y65.58 E26.39347
G1 X53.31 Y65.416 E26.42733
G1 X54.296 Y65.21 E26.47934
G1 X55.032 Y65.093 E26.51782
G1 X56.01 Y64.984 E26.56863
G1 X56.658 Y64.942 E26.60215
G1 X57.146 Y64.922 E26.62737
G1 X57.695 Y64.923 E26.65571
G1 X58.313 Y64.941 E26.68764
G1 X58.776 Y64.965 E26.71157
G1 X59.365 Y65.02 E26.74212
G1 X60.004 Y65.098 E26.77535
G1 X60.479 Y65.167 E26.80013
G1 X60.574 Y65.183 E26.80511
G1 X61.069 Y65.278 E26.83113
G1 X61.611 Y65.396 E26.85977
G1 X62.097 Y65.514 E26.88559
G1 X62.671 Y65.68 E26.91644
G1 X63.329 Y65.89 E26.9521
G1 X63.686 Y66.01 E26.97155
G1 X64.078 Y66.155 E26.99313
G1 X64.375 Y66.27 E27.00957
G1 X66.852 Y67.196 E27.1461
G1 X69.252 Y68.015 E27.27703
G1 X71.634 Y68.754 E27.4058
G1 X74.108 Y69.445 E27.53842
G1 X76.523 Y70.047 E27.66692
G1 X79.046 Y70.601 E27.80029
G1 X81.484 Y71.062 E27.9284
G1 X84.012 Y71.468 E28.06059
G1 X86.493 Y71.795 E28.18979
G1 X88.999 Y72.053 E28.31986
G1 X91.533 Y72.242 E28.45106
G1 X94.054 Y72.359 E28.58136
G1 X97.031 Y72.406 E28.73508
G1 X140.993 Y72.405 E31.00486
G1 X143.619 Y72.368 E31.14045
G1 X146.127 Y72.261 E31.27006
G1 X148.631 Y72.084 E31.39966
G1 X151.174 Y71.831 E31.53161
G1 X153.675 Y71.511 E31.66179
G1 X156.177 Y71.119 E31.79254
G1 X158.65 Y70.659 E31.92241
G1 X161.113 Y70.128 E32.0525
G1 X163.589 Y69.522 E32.18411
G1 X166.008 Y68.856 E32.31365
G1 X168.453 Y68.108 E32.44566
G1 X170.82 Y67.309 E32.57465
G1 X173.31 Y66.389 E32.7117
G1 X173.529 Y66.306 E32.72379
G1 X174.547 Y65.932 E32.77979
G1 X175.006 Y65.775 E32.80483
G1 X175.569 Y65.609 E32.83514
G1 X176.187 Y65.446 E32.86814
G1 X176.519 Y65.364 E32.88579
G1 X177.237 Y65.219 E32.92361
G1 X177.809 Y65.124 E32.95355
G1 X178.167 Y65.071 E32.97224
G1 X178.864 Y64.997 E33.00842
G1 X179.47 Y64.953 E33.03979
G1 X179.814 Y64.933 E33.05759
G1 X180.563 Y64.922 E33.09626
G1 X181.176 Y64.935 E33.12792
G1 X181.629 Y64.954 E33.15133
G1 X182.235 Y65.006 E33.18273
G1 X182.808 Y65.071 E33.2125
G1 X183.196 Y65.121 E33.2327
G1 X183.88 Y65.241 E33.26856
G1 X184.483 Y65.367 E33.30036
G1 X184.912 Y65.466 E33.32309
G1 X185.003 Y65.489 E33.32794
G1 X185.523 Y65.634 E33.35581
G1 X186.095 Y65.81 E33.38671
G1 X186.484 Y65.938 E33.40785
G1 X187.1 Y66.17 E33.44184
G1 X187.648 Y66.396 E33.47244
G1 X188.009 Y66.553 E33.49277
G1 X188.101 Y66.595 E33.49799
G1 X188.624 Y66.851 E33.52805
G1 X189.169 Y67.137 E33.55983
G1 X189.607 Y67.38 E33.58569
G1 X189.682 Y67.424 E33.59018
G1 X190.084 Y67.672 E33.61457
G1 X190.573 Y67.989 E33.64466
G1 X190.919 Y68.224 E33.66625
G1 X191.004 Y68.284 E33.67163
G1 X191.467 Y68.63 E33.70147
G1 X191.95 Y69.012 E33.73326
G1 X192.309 Y69.308 E33.75729
G1 X192.777 Y69.73 E33.78982
G1 X193.199 Y70.134 E33.81998
G1 X193.487 Y70.42 E33.84094
G1 X193.939 Y70.909 E33.87532
G1 X194.323 Y71.351 E33.90555
G1 X194.589 Y71.668 E33.92692
G1 X195.008 Y72.215 E33.96249
G1 X195.366 Y72.715 E33.99424
G1 X195.619 Y73.084 E34.01734
G1 X195.95 Y73.613 E34.04956
G1 X196.247 Y74.121 E34.07994
G1 X196.438 Y74.461 E34.10008
G1 X196.743 Y75.064 E34.13496
G1 X197.008 Y75.632 E34.16733
G1 X197.18 Y76.022 E34.18933
G1 X197.422 Y76.639 E34.22355
G1 X197.613 Y77.175 E34.25293
G1 X197.756 Y77.603 E34.27623
G1 X197.928 Y78.2 E34.30831
G1 X198.087 Y78.821 E34.3414
G1 X198.188 Y79.254 E34.36436
G1 X198.303 Y79.859 E34.39615
G1 X198.396 Y80.444 E34.42674
G1 X198.456 Y80.878 E34.44936
G1 X198.513 Y81.489 E34.48104
G1 X198.557 Y82.17 E34.51627
G1 X198.574 Y82.512 E34.53395
G1 X198.587 Y82.916 E34.55482
G1 X198.594 Y83.363 E34.5779
G1 X198.593 Y151.419 E38.09166
G1 X198.58 Y152.358 E38.14015
G1 X198.563 Y152.83 E38.16453
G1 X198.542 Y153.189 E38.1831
G1 X198.481 Y153.858 E38.21778
G1 X198.401 Y154.511 E38.25175
G1 X198.354 Y154.854 E38.26962
G1 X198.228 Y155.54 E38.30564
G1 X198.105 Y156.106 E38.33554
G1 X197.986 Y156.597 E38.36162
G1 X197.835 Y157.122 E38.38983
G1 X197.633 Y157.761 E38.42443
G1 X197.53 Y158.073 E38.44139
G1 X197.26 Y158.779 E38.48042
G1 X197.04 Y159.298 E38.50952
G1 X196.843 Y159.735 E38.53427
G1 X196.588 Y160.244 E38.56367
G1 X196.287 Y160.806 E38.59658
G1 X196.05 Y161.226 E38.62148
G1 X195.734 Y161.733 E38.65233
G1 X195.408 Y162.225 E38.6828
G1 X195.133 Y162.62 E38.70765
G1 X195.087 Y162.683 E38.71168
G1 X194.792 Y163.068 E38.73672
G1 X194.397 Y163.56 E38.76929
G1 X194.129 Y163.882 E38.79092
G1 X193.653 Y164.402 E38.82732
G1 X193.176 Y164.89 E38.86255
G1 X192.465 Y165.554 E38.91278
G1 X192.016 Y165.936 E38.94322
G1 X191.655 Y166.23 E38.96726
G1 X191.182 Y166.583 E38.99773
G1 X190.667 Y166.946 E39.03026
G1 X190.371 Y167.148 E39.04876
G1 X189.761 Y167.526 E39.08581
G1 X189.246 Y167.821 E39.11646
G1 X188.965 Y167.976 E39.13303
G1 X188.264 Y168.326 E39.17348
G1 X187.721 Y168.572 E39.20426
G1 X187.367 Y168.725 E39.22417
G1 X186.747 Y168.963 E39.25846
G1 X186.173 Y169.163 E39.28984
G1 X185.716 Y169.311 E39.31464
G1 X185.141 Y169.471 E39.34546
G1 X184.576 Y169.611 E39.37551
G1 X184.173 Y169.703 E39.39685
G1 X183.513 Y169.824 E39.4315
G1 X182.884 Y169.919 E39.46434
G1 X182.39 Y169.982 E39.49005
G1 X181.837 Y170.028 E39.5187
G1 X181.237 Y170.062 E39.54973
G1 X180.832 Y170.078 E39.57066
G1 X180.16 Y170.073 E39.60535
G1 X179.472 Y170.047 E39.6409
G1 X178.47 Y169.962 E39.69282
G1 X177.736 Y169.864 E39.73105
G1 X176.789 Y169.693 E39.78074
G1 X176.248 Y169.57 E39.80938
G1 X175.857 Y169.474 E39.83017
G1 X175.222 Y169.289 E39.86432
G1 X174.602 Y169.087 E39.89798
G1 X174.283 Y168.977 E39.91541
G1 X173.882 Y168.831 E39.93744
G1 X171.561 Y167.952 E40.06558
G1 X169.161 Y167.12 E40.19673
G1 X166.755 Y166.361 E40.32698
G1 X164.331 Y165.671 E40.45711
G1 X161.882 Y165.049 E40.58757
G1 X159.392 Y164.489 E40.71934
G1 X156.933 Y164.013 E40.84865
G1 X154.41 Y163.595 E40.98069
G1 X151.948 Y163.258 E41.10899
G1 X149.4 Y162.983 E41.24131
G1 X146.884 Y162.784 E41.37162
G1 X144.39 Y162.657 E41.50055
